X: 39192
T: Swinging On The Gate
R: reel
M: 4/4
K: Gmajor
|:gedB G2AB|cABG AGEG|(3DEG Bd g2fe|fgag fdef|
gedB G2AB|cABG AGE2|cABG AGEG|DEGA G4:|
|:gfga bagf|gfed B2AG|EGAB cBAG|EGAB cdef|
gfga bagf|gfed B2AG|cABG AGEG|(3DEF GA G4:|

